!!!OTL: Absage (107a), S.259
!!!id: T0269
**kern
*clefG2
*k[]
*C:
{8c
8e
=1
4g
4g
4a
4b
=2
2cc
4g}
=3
{8cc
8cc
=4
4b
4dd
4cc
4ee
=5
2dd}
4r
=6
{8g
8g
=7
4ee
4dd
4cc
4b
=8
2a
4g}
=9
{8g
8g
=10
4a
4ff
4ee
4dd
=11
2ee}
4r
=12
{8g
8g
=13
4ee
4dd
4cc
4b
=14
2a
4g}
=15
{8g
8g
=16
4a
4cc
4b
4dd
=17
2cc}
4r
==
*-
!!!minrhy: 8
!!!meters: 4/4 ]  ZZ[6
!!!cut: Absage (107a), S.259
!!!reg: Luxemburg
!!!trd: Singendes Volk, Esch-Alzette 1937 posth.
!!!rhy1: XX  X_X_X_X_  X__X_
!!!rhy2: XX  X_X_X_X_  X__0_
!!!key: T0269  08  C 4/4 ]  ZZ[6
!!!mod: HEPTATONIK IONISCH]  AMBITUS[11
!!!kad: 5+25+35+1
!!!akz: 56+15_7+1+2_+3+165_6+3+3_+3+165_67+1_
!!!fot: 'a__b__c__d__c__bs'
!!!for: 'a__a__a__a__a__a__
!!!fok: '^a_/__^__/__^__/__
!! PHRAS[AUFTAKTIG]
!!!fkt: Liebeslieder
!!!bem: Reuland, fff Katharina Prim, 1906
!! THILL, Mathias:
!! PR[16] 2K[0] 2G[23] 3K[6] 3G[3] 4A[3] 4Ü[0] 5A[0] 6K[0] 6G[0]
!! 7K[3] 7G[0] 8A[0] MEHR[0] SI[39] ABS[31] SR[23] SP[16]
!! ST[8] 2k[6] 2g[32] 3k[0] 3g[0] 4d[3] 4ü[0] 5d[3] 6k[0] 6g[0]
!! 7k[0] 7g[0] 8d[0] mehr[0] si[45] dm[-6] sr[39] sp[6]
!! 1F[35] 2F[53] 3F[12] 4F[0] LF[0] 2P[0] 3P[0] 4P[0] TRI[0] DF[3] AB[34]
!! TF[0] U3K[0] U3[0] U4[0] U4Ü[0] U5[0] U6K[0] U6[0] U7K[0] U7[0]
!! N1[0] N2K[0] N2[0] N3K[0] N3[0] N4[0] N4Ü[0] N5[22] N6K[0] N6[13]
!!!n7k: 0] N7[9] O1[22] O2K[0] O2[22] O3K[0] O3[9] HÖ[3
